X:1
T:Title
%%score ( 1 2 ) ( 3 4 )
L:1/8
Q:1/4=95
M:2/4
K:C
V:1 treble nm="Grand Piano, Soprano"
V:2 treble 
V:3 bass nm="Choir Pad, Down from the Skies, Hanby"
V:4 bass 
V:1
 [EG]2 [EG][EG] | [EG]2 [FA][EG] | [DF]2 [EG][DF] | [CE]2 C2 | [Ec]2 [Ec][Ec] | [Gc]2 [Gc][Gc] | %6
w: By~Benjamin~Russell~Hanby * *||||||
 d2 z2 | [Ec]4 | [EG]2 [EG][EG] | [EG]2 [FA][EG] | [DF]2 [EG][DF] | [CE]2 C2 | [Ec]2 [Ec][Ec] | %13
w: |||||||
 [Gc]2 [Gc][Gc] | d2 z2 | [Ec]2 [Gc][GB] | [FA][FA] [FA][FA] | [FA]2 [Fc][FA] | [FA][EG] [EG][EG] | %19
w: ||||||
 [EG]2 [DF][CE] | [B,D][A,C] [B,D][CE] | [DF][EG] [FA][DB] | z2 .B2 | [Gd]2 [Gc][GB] | %24
w: |||||
 [FA][FA] [FA][FA] | [FA]2 [Fc][FA] | [FA][EG] [EG][EG] | [EG]2 [CE][DF] | [EG]2 [Ec]2 | %29
w: |||||
 [Fd]2 [FB]2 | [Ec]4- | [Ec]4 |] %32
w: |||
V:2
 x4 | x4 | x4 | x4 | x4 | x4 | AF [Ec][FB] | x4 | x4 | x4 | x4 | x4 | x4 | x4 | AF [Ec][FB] | x4 | %16
 x4 | x4 | x4 | x4 | x4 | x4 | [Ec]2 G-[Gc] | x4 | x4 | x4 | x4 | x4 | x4 | x4 | x4 | x4 |] %32
V:3
 [C,C]2 [C,C][C,C] | [C,C]2 [C,C][C,C] | [G,B,]2 [G,B,][G,B,] | [C,C]2 [C,C]2 | %4
 [C,G,]2 [C,G,][C,G,] | [E,C]2 [E,C][E,C] | A,D [G,E][G,D] | [C,C]4 | [C,C]2 [C,C][C,C] | %9
 [C,C]2 [C,C][C,C] | [G,B,]2 [G,B,][G,B,] | [C,C]2 [C,C]2 | [C,G,]2 [C,G,][C,G,] | %13
 [E,C]2 [E,C][E,C] | A,D [G,E][G,D] | [C,C]2 [E,C][E,C] | [F,C][F,C] [F,C][F,C] | %17
 [F,C]2 [F,A,][F,C] | [C,C][C,C] [C,C][C,C] | [C,C]2 [C,G,][C,G,] | [G,,G,][G,,G,] [G,,G,][G,,G,] | %21
 [G,,G,][G,,G,] [G,,G,][G,,G,] | [C,G,]2 [E,G,]2 | [G,B,]2 [E,C][E,C] | [F,C][F,C] [F,C][F,C] | %25
 [F,C]2 [F,A,][F,C] | [C,C][C,C] [C,C][C,C] | [C,C]2 [C,C][C,C] | [C,C]2 [C,G,]2 | [F,A,]2 [G,D]2 | %30
 [C,C]4- | [C,C]4 |] %32
V:4
 x4 | x4 | x4 | x4 | x4 | x4 | F,2 z2 | x4 | x4 | x4 | x4 | x4 | x4 | x4 | F,2 z2 | x4 | x4 | x4 | %18
 x4 | x4 | x4 | x4 | x4 | x4 | x4 | x4 | x4 | x4 | x4 | x4 | x4 | x4 |] %32

